X:14
T:Sailor's Hornpipe (Craig 14), The
M:2/4
L:1/16
B:Empire Violin Collection of Hornpipes
H:Published by Thomas Craig
H:Music Publisher, &c.
H:George Street, Aberdeen, N.B.
Z:Peter Dunk December 2011
R:hornpipe
Q:1/4=70
K:G
(3def | gdBd cedc | BGBd cedc | BGBG cAcA | BGBG Adef |!
gdBd cedc | BGBd cedc | Bdgb bagf | g2g2g2 :|!
|:fg | afdf a2a2 | bgdg b2b2 | agfe a2ab | agfe d2d2 |!
ecGc ecge | dBGB dBgd | egfe dcBA | G2G2G2 :|

